X:10
T:Dame Lombarde
R:Chanson
O:France
B:Le livre des Chansons (Henri Davenson) n°10
Z:<anamnese@caramail.com> -- http://anamnese.fr.st
M:2/4
L:1/8
Q:1/4=110
K:G
D2 F>G | A3 B | c2 B2 | A4 | F G A B | A4 |\
 D2 F>G | A3 G | F2 A2 | F2 D2 | z D F A | G2 z2 ||
W:"Allons au bois, charmante brune, allons au bois ;
W:Nous trouverons le serpent verde, nous le tuerons.
W:Dans une pinte de vin rouge nous le mettrons ;
W:Quand ton mari viendra de chasse, grand soif aura.

